X: 21517
T: Kid On The Mountain, The
R: slip jig
M: 9/8
K: Eminor
|:EDE FEF G2F|~E3 cBA BAG|EDE FEF G2A|BAG ~F3 AFD:|
|:BGB AFA G2D|GAB dge dBA|BGB AFA G2A|BAG ~F3 AFD:|
|:gBg eBe e2f|~g3 efg afd|gBg eBe e2a|bag ~f3 afd:|
|:BGB AFAG2A|BAB cBA BAG|DBB DAA G2A|BAG ~F3 AFD:|

